packages/kaspersky-hexa-ui-icons/src/iconsSVGs/48/Support2.svg

<svg width="48" height="48" viewBox="0 0 48 48" fill="none" xmlns="http://www.w3.org/2000/svg">
<path fill-rule="evenodd" clip-rule="evenodd" d="M43.5806 37.8906C49.5148 29.5813 49.5148 18.4199 43.5806 10.1106L46.0306 7.69063C47.0471 6.67421 47.444 5.19275 47.072 3.80429C46.6999 2.41583 45.6154 1.33133 44.227 0.95929C42.8385 0.587254 41.3571 0.984211 40.3406 2.00063L37.9206 4.45063C29.6113 -1.48354 18.4499 -1.48354 10.1406 4.45063L7.72063 2.00063C6.14938 0.429382 3.60188 0.429382 2.03063 2.00063C0.459382 3.57188 0.459382 6.11938 2.03063 7.69063L4.45063 10.1106C-1.48354 18.4199 -1.48354 29.5813 4.45063 37.8906L2.03063 40.3106C0.459382 41.8819 0.459382 44.4294 2.03063 46.0006C3.60188 47.5719 6.14938 47.5719 7.72063 46.0006L10.1406 43.5806C18.4499 49.5148 29.6113 49.5148 37.9206 43.5806L40.3406 46.0006C41.9119 47.5719 44.4594 47.5719 46.0306 46.0006C47.6019 44.4294 47.6019 41.8819 46.0306 40.3106L43.5806 37.8906ZM40.8306 38.1806C40.6806 38.3606 40.5306 38.5406 40.3706 38.7106L40.0306 39.1006L39.1306 40.0006L38.7406 40.3606C38.5706 40.5206 38.3906 40.6706 38.2106 40.8206L37.7706 41.1906C36.3513 42.3075 34.8037 43.2509 33.1606 44.0006L29.1606 37.0006C32.7588 35.5776 35.6076 32.7288 37.0306 29.1306L44.0306 33.1306C43.2715 34.7752 42.318 36.3229 41.1906 37.7406L40.8306 38.1806ZM10.2906 41.1806L9.85063 40.8106C9.67063 40.6606 9.49063 40.5106 9.32063 40.3506L8.93063 40.0006L8.03063 39.1006L7.67063 38.7106C7.51063 38.5406 7.36063 38.3606 7.21063 38.1806L6.84063 37.7406C5.72375 36.3213 4.78041 34.7737 4.03063 33.1306L11.0306 29.1306C12.4537 32.7288 15.3025 35.5776 18.9006 37.0006L14.9006 44.0006C13.2566 43.2446 11.7089 42.2945 10.2906 41.1706V41.1806ZM6.86063 10.2606L7.23063 9.82063C7.38063 9.64063 7.53063 9.46063 7.69063 9.29063L8.03063 8.90063L8.93063 8.00063L9.32063 7.64063C9.49063 7.48063 9.67063 7.33063 9.85063 7.18063L10.2906 6.81063C11.7099 5.69375 13.2576 4.75041 14.9006 4.00063L18.9006 11.0006C15.3025 12.4237 12.4537 15.2725 11.0306 18.8706L4.03063 14.8706C4.78668 13.2266 5.73677 11.6789 6.86063 10.2606ZM12.0306 24.0006C12.0306 17.3732 17.4032 12.0006 24.0306 12.0006C30.658 12.0006 36.0306 17.3732 36.0306 24.0006C36.0306 30.628 30.658 36.0006 24.0306 36.0006C20.848 36.0006 17.7958 34.7364 15.5454 32.4859C13.2949 30.2355 12.0306 27.1832 12.0306 24.0006ZM37.7706 6.83063L38.2106 7.20063C38.3906 7.35063 38.5706 7.50063 38.7406 7.66063L39.1306 8.00063L40.0306 8.90063L40.3906 9.29063C40.5506 9.46063 40.7006 9.64063 40.8506 9.82063L41.2206 10.2606C42.3375 11.6799 43.2809 13.2276 44.0306 14.8706L37.0306 18.8706C35.6076 15.2725 32.7588 12.4237 29.1606 11.0006L33.1606 4.00063C34.8047 4.75668 36.3524 5.70677 37.7706 6.83063ZM44.7706 31.2506L37.6206 27.1806C38.1271 25.0909 38.1271 22.9104 37.6206 20.8206L44.7706 16.7506C46.4092 21.4451 46.4092 26.5562 44.7706 31.2506ZM39.5206 5.68063L41.7606 3.44063C42.2662 2.9351 43.003 2.73767 43.6936 2.92271C44.3841 3.10774 44.9235 3.64714 45.1086 4.33771C45.2936 5.02827 45.0962 5.7651 44.5906 6.27063L42.3506 8.51063C42.2706 8.41063 42.1806 8.32063 42.1006 8.23063C41.8206 7.91063 41.5406 7.60063 41.2506 7.30063L40.7306 6.78063C40.4306 6.49063 40.1206 6.21063 39.8006 5.93063L39.5206 5.68063ZM31.2806 3.23063L27.2106 10.3806C25.1209 9.87413 22.9404 9.87413 20.8506 10.3806L16.7806 3.23063C21.4751 1.59206 26.5862 1.59206 31.2806 3.23063ZM5.71063 8.51063L3.47063 6.27063C2.9009 5.6975 2.73207 4.83782 3.04273 4.09179C3.3534 3.34575 4.0825 2.85999 4.89063 2.86063C5.41878 2.86021 5.92565 3.06871 6.30063 3.44063L8.54063 5.68063L8.26063 5.93063C7.94063 6.21063 7.63063 6.49063 7.33063 6.78063L6.81063 7.30063C6.52063 7.60063 6.24063 7.91063 5.96063 8.23063C5.88063 8.32063 5.79063 8.41063 5.71063 8.51063ZM3.26063 16.7506L10.4106 20.8206C9.90413 22.9104 9.90413 25.0909 10.4106 27.1806L3.26063 31.2506C1.62206 26.5562 1.62206 21.4451 3.26063 16.7506ZM8.54063 42.3206L6.30063 44.5606C5.7951 45.0662 5.05827 45.2636 4.36771 45.0786C3.67714 44.8935 3.13774 44.3541 2.95271 43.6636C2.76767 42.973 2.9651 42.2362 3.47063 41.7306L5.71063 39.4906C5.79063 39.5906 5.88063 39.6806 5.96063 39.7706C6.24063 40.0906 6.52063 40.4006 6.81063 40.7006L7.33063 41.2206C7.63063 41.5106 7.94063 41.7906 8.26063 42.0706L8.54063 42.3206ZM16.7806 44.7706L20.8506 37.6206C22.9404 38.1271 25.1209 38.1271 27.2106 37.6206L31.2806 44.7706C26.5862 46.4092 21.4751 46.4092 16.7806 44.7706ZM44.5906 44.5606C44.2155 44.9362 43.7065 45.1472 43.1756 45.1472C42.6448 45.1472 42.1358 44.9362 41.7606 44.5606L39.5206 42.3206L39.8006 42.0706C40.1206 41.7906 40.4306 41.5106 40.7306 41.2206L41.2506 40.7006C41.5406 40.4006 41.8206 40.0906 42.1006 39.7706C42.1806 39.6806 42.2706 39.5906 42.3506 39.4906L44.5906 41.7306C44.9662 42.1058 45.1772 42.6148 45.1772 43.1456C45.1772 43.6764 44.9662 44.1855 44.5906 44.5606Z"  fill="currentColor"/>
</svg>

<svg xmlns="http://www.w3.org/2000/svg" width="48" height="48" fill="none" viewBox="0 0 48 48"><path fill="currentColor" fill-rule="evenodd" d="M43.5806 37.8906c5.9342-8.3093 5.9342-19.4707 0-27.78l2.45-2.42a4.0234 4.0234 0 1 0-5.69-5.69l-2.42 2.45c-8.3093-5.9341-19.4707-5.9341-27.78 0l-2.42-2.45c-1.5712-1.5712-4.1187-1.5712-5.69 0-1.5712 1.5713-1.5712 4.1188 0 5.69l2.42 2.42c-5.9341 8.3093-5.9341 19.4707 0 27.78l-2.42 2.42c-1.5712 1.5713-1.5712 4.1188 0 5.69s4.1188 1.5713 5.69 0l2.42-2.42c8.3093 5.9342 19.4707 5.9342 27.78 0l2.42 2.42c1.5713 1.5713 4.1188 1.5713 5.69 0s1.5713-4.1187 0-5.69zm-2.75.29c-.15.18-.3.36-.46.53l-.34.39-.9.9-.39.36c-.17.16-.35.31-.53.46l-.44.37a22.68 22.68 0 0 1-4.61 2.81l-4-7a14 14 0 0 0 7.87-7.87l7 4a22.67 22.67 0 0 1-2.84 4.61zm-30.54 3-.44-.37c-.18-.15-.36-.3-.53-.46l-.39-.35-.9-.9-.36-.39c-.16-.17-.31-.35-.46-.53l-.37-.44a22.68 22.68 0 0 1-2.81-4.61l7-4a14 14 0 0 0 7.87 7.87l-4 7a22.68 22.68 0 0 1-4.61-2.83zm-3.43-30.92.37-.44c.15-.18.3-.36.46-.53l.34-.39.9-.9.39-.36c.17-.16.35-.31.53-.46l.44-.37a22.68 22.68 0 0 1 4.61-2.81l4 7a14 14 0 0 0-7.87 7.87l-7-4a22.68 22.68 0 0 1 2.83-4.61m5.17 13.74c0-6.6274 5.3726-12 12-12s12 5.3726 12 12-5.3726 12-12 12a12 12 0 0 1-12-12m25.74-17.17.44.37c.18.15.36.3.53.46l.39.34.9.9.36.39c.16.17.31.35.46.53l.37.44a22.68 22.68 0 0 1 2.81 4.61l-7 4a14 14 0 0 0-7.87-7.87l4-7a22.68 22.68 0 0 1 4.61 2.83m7 24.42-7.15-4.07a13.5 13.5 0 0 0 0-6.36l7.15-4.07a22 22 0 0 1 0 14.5m-5.25-25.57 2.24-2.24a2.0013 2.0013 0 0 1 3.348.8971 2.001 2.001 0 0 1-.518 1.933l-2.24 2.24c-.08-.1-.17-.19-.25-.28-.28-.32-.56-.63-.85-.93l-.52-.52c-.3-.29-.61-.57-.93-.85zm-8.24-2.45-4.07 7.15a13.5 13.5 0 0 0-6.36 0l-4.07-7.15a22 22 0 0 1 14.5 0m-25.57 5.28-2.24-2.24a2 2 0 0 1 1.42-3.41 2 2 0 0 1 1.41.58l2.24 2.24-.28.25c-.32.28-.63.56-.93.85l-.52.52c-.29.3-.57.61-.85.93-.08.09-.17.18-.25.28m-2.45 8.24 7.15 4.07a13.5 13.5 0 0 0 0 6.36l-7.15 4.07a22 22 0 0 1 0-14.5m5.28 25.57-2.24 2.24a2.001 2.001 0 1 1-2.83-2.83l2.24-2.24c.08.1.17.19.25.28.28.32.56.63.85.93l.52.52c.3.29.61.57.93.85zm8.24 2.45 4.07-7.15a13.5 13.5 0 0 0 6.36 0l4.07 7.15a22 22 0 0 1-14.5 0m27.81-.21a1.9996 1.9996 0 0 1-2.83 0l-2.24-2.24.28-.25c.32-.28.63-.56.93-.85l.52-.52c.29-.3.57-.61.85-.93.08-.09.17-.18.25-.28l2.24 2.24a2 2 0 0 1 0 2.83" clip-rule="evenodd"/></svg>
